src/lib/packages/icons/src/assets/line/angle-right-square.svg

<svg xmlns="http://www.w3.org/2000/svg" width="24" height="24" fill="none"><path fill="currentColor" d="M17.625 2.25H6.375c-2.66 0-4.125 1.465-4.125 4.125v11.25c0 2.66 1.465 4.125 4.125 4.125h11.25c2.66 0 4.125-1.465 4.125-4.125V6.375c0-2.66-1.465-4.125-4.125-4.125Zm2.625 15.375c0 1.84-.785 2.625-2.625 2.625H6.375c-1.84 0-2.625-.785-2.625-2.625V6.375c0-1.84.785-2.625 2.625-2.625h11.25c1.84 0 2.625.785 2.625 2.625v11.25Zm-5.72-6.155a.75.75 0 0 1 0 1.061l-3 3a.748.748 0 0 1-1.06 0 .75.75 0 0 1 0-1.061L12.94 12l-2.47-2.47a.75.75 0 0 1 1.061-1.061l2.999 3.001Z"/></svg>

<svg width="24" height="24" viewBox="0 0 24 24" fill="none" xmlns="http://www.w3.org/2000/svg">
<path d="M17.625 2.25H6.375C3.715 2.25 2.25 3.715 2.25 6.375V17.625C2.25 20.285 3.715 21.75 6.375 21.75H17.625C20.285 21.75 21.75 20.285 21.75 17.625V6.375C21.75 3.715 20.285 2.25 17.625 2.25ZM20.25 17.625C20.25 19.465 19.465 20.25 17.625 20.25H6.375C4.535 20.25 3.75 19.465 3.75 17.625V6.375C3.75 4.535 4.535 3.75 6.375 3.75H17.625C19.465 3.75 20.25 4.535 20.25 6.375V17.625ZM14.53 11.47C14.823 11.763 14.823 12.238 14.53 12.531L11.53 15.531C11.384 15.677 11.192 15.751 11 15.751C10.808 15.751 10.616 15.678 10.47 15.531C10.177 15.238 10.177 14.763 10.47 14.47L12.9399 12L10.47 9.53003C10.177 9.23703 10.177 8.76199 10.47 8.46899C10.763 8.17599 11.238 8.17599 11.531 8.46899L14.53 11.47Z" fill="currentColor"/>
</svg>
